X:1
T:Title
%%score { ( 1 3 ) | ( 2 4 ) }
L:1/8
Q:1/4=126
M:6/4
K:A
V:1 treble nm="Grand Piano"
V:3 treble 
V:2 bass 
V:4 bass 
V:1
 [FA]2 [^EG]2 [FA]2 F3 E F2 | D2 F2 [FA]2 [Fd]6 | d2 c2 d2 A3 G A2 | F2 E2 D2 [A,CE]4 [C=GA]2 | %4
w: Chas.~H.~Gabriel * * * * *||||
 [FA]2 [^EG]2 [FA]2 F3 E F2 | D2 F2 [FA]2 [Fd]6 | d2 c2 B2 A4 G2 | A6- [=GA]6 | %8
w: ||||
 .[DFA]6 [Fd]4 [FB]2 | c4- [=Gc-]2 [Gc]6 | z2 A2 B2 [C=Gc]4 [CGB]2 | A12 | %12
w: ||||
 [Fd]2 [Fc]2 [Fd]2 [FA]2 [^EG]2 [FA]2 | z6 d6 | d2 F2 F2 [CA]4 C2 | D12 |] %16
w: ||||
V:2
 [D,D]2 [D,D]2 [D,D]2 [D,A,D]3 [D,G,D] [D,A,D]2 | [D,F,]2 [D,A,D]2 [D,D]2 [D,A,]6 | %2
 [=G,B,=G]2 [G,^A,G]2 [G,B,G]2[K:bass] [F,D]3 [^E,B,D] [F,D]2 | %3
 [D,A,D]2 [C,A,]2 [B,,G,B,]2 A,,4 A,,2 | [D,D]2 [D,D]2 [D,D]2 [D,A,D]3 [D,G,D] [D,A,D]2 | %5
 [D,F,]2 [D,A,D]2 [D,D]2 [D,A,]6 | [E,G,E]2 [E,A,E]2 [E,DE]2 [E,CE]4 [E,B,D]2 | z6 .C6 | %8
 z2[K:treble] B2 c2[K:bass] [D,A,]4 [D,A,]2 | [E,A,]4 [A,,A,]2 [A,E]6 | [A,C]6 [A,,A,]4 A,,2 | %11
 D,4 A,,2 .D,6 | [D,A,]2 [D,A,]2 [D,A,]2 [D,D]2 [D,D]2 [D,D]2 | %13
 [=G,D=G]2 [G,CG]2 [G,DG]2 [G,B,G]4 [^G,B,]2 | [A,F]2[K:bass] [A,D]2 [A,D]2 [A,,E,]4 [A,,=G,A,]2 | %15
 [D,F,A,]12 |] %16
V:3
 x12 | x12 | x12 | x12 | x12 | x12 | x12 | [A,C]6 z6 | x12 | .=G6 z6 | =G6 z6 | %11
 [DF]4 [DF]2 .[DF]6 | x12 | B2 ^A2 B2 z4 ^E2 | x12 | x12 |] %16
V:4
 x12 | x12 | x6[K:bass] x6 | x12 | x12 | x12 | x12 | A,,12 | D,6[K:treble][K:bass] z6 | x12 | x12 | %11
 x12 | x12 | x12 | x2[K:bass] x10 | x12 |] %16

